phaus-qemu-guest-agent/icon.svg

<?xml version="1.0" standalone="no"?>
<!DOCTYPE svg PUBLIC "-//W3C//DTD SVG 20010904//EN"
 "http://www.w3.org/TR/2001/REC-SVG-20010904/DTD/svg10.dtd">
<svg version="1.0" xmlns="http://www.w3.org/2000/svg"
 width="256.000000pt" height="256.000000pt" viewBox="0 0 256.000000 256.000000"
 preserveAspectRatio="xMidYMid meet">
<metadata>
Created by potrace 1.10, written by Peter Selinger 2001-2011
</metadata>
<g transform="translate(0.000000,256.000000) scale(0.100000,-0.100000)"
fill="#000000" stroke="none">
<path d="M1030 2452 c-107 -38 -103 -33 -95 -112 4 -37 7 -75 8 -84 1 -10 -16
-30 -39 -47 l-41 -30 -68 30 c-37 17 -76 31 -86 31 -22 0 -129 -139 -129 -167
0 -10 25 -44 56 -75 l56 -58 -18 -47 c-10 -27 -18 -49 -19 -50 -1 -1 -34 -9
-75 -18 -40 -8 -79 -20 -87 -26 -9 -8 -13 -40 -13 -110 0 -114 -3 -110 106
-129 l71 -13 16 -50 16 -50 -54 -60 c-30 -33 -55 -68 -55 -76 0 -22 109 -171
125 -171 7 0 46 15 88 34 74 34 75 34 93 15 28 -31 84 -20 84 17 0 21 -73 84
-98 84 -12 0 -49 -13 -82 -30 -33 -16 -61 -30 -63 -30 -3 0 -16 18 -31 40
l-27 41 48 50 c26 28 51 56 55 62 5 11 -37 155 -55 183 -3 6 -40 17 -82 24
l-75 13 0 48 c0 53 -3 51 94 68 33 6 61 12 62 14 2 2 15 37 29 78 14 41 28 81
31 89 3 9 -17 40 -51 77 l-56 63 27 35 c14 19 30 35 35 35 5 0 36 -13 69 -30
33 -16 64 -30 70 -30 6 0 33 17 60 38 27 20 61 45 75 56 29 20 28 16 9 146 -5
35 -4 36 42 48 26 7 48 11 49 10 1 -2 19 -33 39 -70 l38 -68 98 0 98 0 38 68
c20 37 38 68 39 70 1 1 23 -3 49 -10 42 -11 46 -15 42 -38 -3 -14 -8 -50 -11
-82 -6 -53 -5 -57 20 -75 14 -10 48 -35 75 -55 27 -21 54 -38 60 -38 6 0 37
14 70 30 33 17 64 30 69 30 5 0 21 -16 35 -35 l27 -35 -56 -63 c-34 -37 -54
-68 -51 -77 3 -8 17 -49 31 -91 l26 -77 62 -11 c101 -20 97 -17 97 -70 l0 -48
-75 -13 c-42 -7 -79 -18 -83 -24 -4 -6 -16 -40 -28 -76 -12 -36 -25 -73 -29
-82 -5 -13 8 -33 50 -77 l56 -59 -27 -41 c-14 -23 -28 -41 -31 -41 -2 0 -30
14 -63 30 -33 17 -70 30 -82 30 -25 0 -98 -63 -98 -84 0 -37 52 -47 85 -16 20
19 21 19 93 -15 40 -19 79 -35 86 -35 17 0 126 148 126 171 0 8 -25 43 -55 76
l-54 60 16 50 16 50 71 13 c109 19 106 15 106 129 0 70 -4 102 -13 110 -10 8
-139 41 -162 41 -1 0 -10 23 -20 52 l-16 51 55 56 c31 31 56 64 56 74 0 27
-108 167 -129 167 -10 0 -49 -14 -86 -31 l-68 -30 -41 30 c-23 17 -40 37 -39
47 1 9 4 47 8 84 5 50 3 69 -7 77 -7 6 -53 23 -102 39 l-88 29 -23 -29 c-12
-16 -33 -50 -46 -77 l-22 -49 -57 0 c-54 0 -58 2 -70 30 -24 58 -69 120 -87
119 -10 0 -52 -13 -93 -27z"/>
<path d="M451 2236 c-115 -167 -181 -408 -168 -613 7 -101 38 -247 65 -303 19
-39 51 -50 72 -26 10 13 8 30 -14 98 -81 261 -51 534 86 761 51 86 55 96 36
115 -22 22 -47 12 -77 -32z"/>
<path d="M2050 2225 c-26 -32 13 -81 48 -59 34 22 22 74 -18 74 -10 0 -23 -7
-30 -15z"/>
<path d="M1152 2071 c-131 -49 -223 -148 -257 -276 -60 -231 86 -454 323 -496
102 -18 234 13 240 57 6 40 -21 49 -90 29 -149 -42 -301 27 -376 170 -23 43
-27 63 -27 135 0 73 4 93 28 142 30 62 83 115 149 150 36 19 58 23 138 23 80
0 102 -4 138 -23 66 -35 119 -88 149 -150 24 -49 28 -70 29 -145 1 -94 8 -111
45 -105 27 4 37 30 38 103 3 155 -95 309 -237 372 -79 36 -214 42 -290 14z"/>
<path d="M2145 2066 c-17 -12 -18 -17 -6 -52 97 -296 72 -577 -75 -814 -47
-77 -51 -89 -32 -108 33 -33 71 5 140 143 105 209 133 453 77 685 -34 142 -60
178 -104 146z"/>
<path d="M1538 1499 c-40 -23 -6 -89 36 -73 26 10 32 55 11 71 -22 15 -25 16
-47 2z"/>
<path d="M450 1185 c-26 -32 13 -81 48 -59 34 22 22 74 -18 74 -10 0 -23 -7
-30 -15z"/>
<path d="M1052 1188 c-8 -8 -12 -47 -12 -109 0 -67 -4 -100 -13 -107 -8 -7
-110 -12 -285 -14 l-272 -3 -32 -33 c-31 -31 -33 -37 -37 -117 l-3 -85 -147 0
c-101 0 -151 -4 -159 -12 -17 -17 -17 -599 0 -616 17 -17 599 -17 616 0 17 17
17 599 0 616 -8 8 -49 12 -120 12 l-108 0 0 69 c0 44 5 72 13 79 8 7 110 12
285 14 l272 3 32 33 c33 32 33 33 36 143 4 114 -3 139 -37 139 -9 0 -22 -5
-29 -12z m-594 -480 c19 -19 14 -28 -18 -28 -16 0 -30 4 -30 8 0 9 21 32 30
32 3 0 11 -5 18 -12z m182 -308 l0 -240 -240 0 -240 0 0 240 0 240 240 0 240
0 0 -240z"/>
<path d="M1252 1188 c-9 -9 -12 -76 -12 -240 l0 -228 -128 0 c-86 0 -132 -4
-140 -12 -17 -17 -17 -599 0 -616 17 -17 599 -17 616 0 17 17 17 599 0 616 -8
8 -54 12 -140 12 l-128 0 0 228 c0 234 -3 252 -40 252 -9 0 -21 -5 -28 -12z
m53 -488 c18 -20 17 -20 -25 -20 -42 0 -43 0 -25 20 10 11 21 20 25 20 4 0 15
-9 25 -20z m215 -300 l0 -240 -240 0 -240 0 0 240 0 240 240 0 240 0 0 -240z"/>
<path d="M1450 1185 c-8 -10 -11 -48 -8 -124 3 -110 3 -111 36 -143 l32 -33
272 -3 c175 -2 277 -7 285 -14 8 -7 13 -35 13 -79 l0 -69 -108 0 c-71 0 -112
-4 -120 -12 -17 -17 -17 -599 0 -616 17 -17 599 -17 616 0 17 17 17 599 0 616
-8 8 -58 12 -159 12 l-147 0 -3 85 c-4 80 -6 86 -37 117 l-32 33 -272 3 c-175
2 -277 7 -285 14 -9 7 -13 40 -13 107 0 99 -7 121 -41 121 -9 0 -22 -7 -29
-15z m695 -485 c18 -20 17 -20 -18 -20 -39 0 -45 8 -25 28 16 16 22 15 43 -8z
m255 -300 l0 -240 -240 0 -240 0 0 240 0 240 240 0 240 0 0 -240z"/>
</g>
</svg>

<?xml version="1.0" encoding="UTF-8" standalone="no"?>
<!DOCTYPE svg PUBLIC "-//W3C//DTD SVG 1.1//EN" "http://www.w3.org/Graphics/SVG/1.1/DTD/svg11.dtd">
<svg width="100%" height="100%" viewBox="0 0 256 256" version="1.1" xmlns="http://www.w3.org/2000/svg" xmlns:xlink="http://www.w3.org/1999/xlink" xml:space="preserve" xmlns:serif="http://www.serif.com/" style="fill-rule:evenodd;clip-rule:evenodd;stroke-linejoin:round;stroke-miterlimit:2;">
    <g id="Ebene1">
        <rect x="-14.351" y="-6.242" width="315.109" height="376.523" style="fill:rgb(235,235,235);"/>
    </g>
    <g transform="matrix(0.1,0,0,-0.1,0,256)">
        <path d="M1030,2452C923,2414 927,2419 935,2340C939,2303 942,2265 943,2256C944,2246 927,2226 904,2209L863,2179L795,2209C758,2226 719,2240 709,2240C687,2240 580,2101 580,2073C580,2063 605,2029 636,1998L692,1940L674,1893C664,1866 656,1844 655,1843C654,1842 621,1834 580,1825C540,1817 501,1805 493,1799C484,1791 480,1759 480,1689C480,1575 477,1579 586,1560L657,1547L689,1447L635,1387C605,1354 580,1319 580,1311C580,1289 689,1140 705,1140C712,1140 751,1155 793,1174C867,1208 868,1208 886,1189C914,1158 970,1169 970,1206C970,1227 897,1290 872,1290C860,1290 823,1277 790,1260C757,1244 729,1230 727,1230C724,1230 711,1248 696,1270L669,1311L717,1361C743,1389 768,1417 772,1423C777,1434 735,1578 717,1606C714,1612 677,1623 635,1630L560,1643L560,1691C560,1744 557,1742 654,1759C687,1765 715,1771 716,1773C718,1775 731,1810 745,1851C759,1892 773,1932 776,1940C779,1949 759,1980 725,2017L669,2080L696,2115C710,2134 726,2150 731,2150C736,2150 767,2137 800,2120C833,2104 864,2090 870,2090C876,2090 903,2107 930,2128C957,2148 991,2173 1005,2184C1034,2204 1033,2200 1014,2330C1009,2365 1010,2366 1056,2378C1082,2385 1104,2389 1105,2388C1106,2386 1124,2355 1144,2318L1182,2250L1378,2250L1416,2318C1436,2355 1454,2386 1455,2388C1456,2389 1478,2385 1504,2378C1546,2367 1550,2363 1546,2340C1543,2326 1538,2290 1535,2258C1529,2205 1530,2201 1555,2183C1569,2173 1603,2148 1630,2128C1657,2107 1684,2090 1690,2090C1696,2090 1727,2104 1760,2120C1793,2137 1824,2150 1829,2150C1834,2150 1850,2134 1864,2115L1891,2080L1835,2017C1801,1980 1781,1949 1784,1940C1787,1932 1801,1891 1815,1849L1841,1772L1903,1761C2004,1741 2000,1744 2000,1691L2000,1643L1925,1630C1883,1623 1846,1612 1842,1606C1838,1600 1826,1566 1814,1530C1802,1494 1789,1457 1785,1448C1780,1435 1793,1415 1835,1371L1891,1312L1864,1271C1850,1248 1836,1230 1833,1230C1831,1230 1803,1244 1770,1260C1737,1277 1700,1290 1688,1290C1663,1290 1590,1227 1590,1206C1590,1169 1642,1159 1675,1190C1695,1209 1696,1209 1768,1175C1808,1156 1847,1140 1854,1140C1871,1140 1980,1288 1980,1311C1980,1319 1955,1354 1925,1387L1871,1447L1903,1547L1974,1560C2083,1579 2080,1575 2080,1689C2080,1759 2076,1791 2067,1799C2057,1807 1928,1840 1905,1840C1904,1840 1895,1863 1885,1892L1869,1943L1924,1999C1955,2030 1980,2063 1980,2073C1980,2100 1872,2240 1851,2240C1841,2240 1802,2226 1765,2209L1697,2179L1656,2209C1633,2226 1616,2246 1617,2256C1618,2265 1621,2303 1625,2340C1630,2390 1628,2409 1618,2417C1611,2423 1565,2440 1516,2456L1428,2485L1405,2456C1393,2440 1372,2406 1359,2379L1337,2330L1280,2330C1226,2330 1222,2332 1210,2360C1186,2418 1141,2480 1123,2479C1113,2479 1071,2466 1030,2452Z" style="fill-rule:nonzero;"/>
        <path d="M451,2236C336,2069 270,1828 283,1623C290,1522 321,1376 348,1320C367,1281 399,1270 420,1294C430,1307 428,1324 406,1392C325,1653 355,1926 492,2153C543,2239 547,2249 528,2268C506,2290 481,2280 451,2236Z" style="fill-rule:nonzero;"/>
        <path d="M2050,2225C2024,2193 2063,2144 2098,2166C2132,2188 2120,2240 2080,2240C2070,2240 2057,2233 2050,2225Z" style="fill-rule:nonzero;"/>
        <path d="M1152,2071C1021,2022 929,1923 895,1795C835,1564 981,1341 1218,1299C1320,1281 1452,1312 1458,1356C1464,1396 1437,1405 1368,1385C1219,1343 1067,1412 992,1555C969,1598 965,1618 965,1690C965,1763 969,1783 993,1832C1023,1894 1076,1947 1142,1982C1178,2001 1200,2005 1280,2005C1360,2005 1382,2001 1418,1982C1484,1947 1537,1894 1567,1832C1591,1783 1595,1762 1596,1687C1597,1593 1604,1576 1641,1582C1668,1586 1678,1612 1679,1685C1682,1840 1584,1994 1442,2057C1363,2093 1228,2099 1152,2071Z" style="fill-rule:nonzero;"/>
        <path d="M2145,2066C2128,2054 2127,2049 2139,2014C2236,1718 2211,1437 2064,1200C2017,1123 2013,1111 2032,1092C2065,1059 2103,1097 2172,1235C2277,1444 2305,1688 2249,1920C2215,2062 2189,2098 2145,2066Z" style="fill-rule:nonzero;"/>
        <path d="M1538,1499C1498,1476 1532,1410 1574,1426C1600,1436 1606,1481 1585,1497C1563,1512 1560,1513 1538,1499Z" style="fill-rule:nonzero;"/>
        <path d="M450,1185C424,1153 463,1104 498,1126C532,1148 520,1200 480,1200C470,1200 457,1193 450,1185Z" style="fill-rule:nonzero;"/>
        <path d="M1052,1188C1044,1180 1040,1141 1040,1079C1040,1012 1036,979 1027,972C1019,965 917,960 742,958L470,955L438,922C407,891 405,885 401,805L398,720L251,720C150,720 100,716 92,708C75,691 75,109 92,92C109,75 691,75 708,92C725,109 725,691 708,708C700,716 659,720 588,720L480,720L480,789C480,833 485,861 493,868C501,875 603,880 778,882L1050,885L1082,918C1115,950 1115,951 1118,1061C1122,1175 1115,1200 1081,1200C1072,1200 1059,1195 1052,1188ZM458,708C477,689 472,680 440,680C424,680 410,684 410,688C410,697 431,720 440,720C443,720 451,715 458,708ZM640,640L640,160L160,160L160,640L640,640Z" style="fill-rule:nonzero;"/>
        <path d="M1252,1188C1243,1179 1240,1112 1240,948L1240,720L1112,720C1026,720 980,716 972,708C955,691 955,109 972,92C989,75 1571,75 1588,92C1605,109 1605,691 1588,708C1580,716 1534,720 1448,720L1320,720L1320,948C1320,1182 1317,1200 1280,1200C1271,1200 1259,1195 1252,1188ZM1305,700C1323,680 1322,680 1280,680C1238,680 1237,680 1255,700C1265,711 1276,720 1280,720C1284,720 1295,711 1305,700ZM1520,640L1520,160L1040,160L1040,640L1520,640Z" style="fill-rule:nonzero;"/>
        <path d="M1450,1185C1442,1175 1439,1137 1442,1061C1445,951 1445,950 1478,918L1510,885L1782,882C1957,880 2059,875 2067,868C2075,861 2080,833 2080,789L2080,720L1972,720C1901,720 1860,716 1852,708C1835,691 1835,109 1852,92C1869,75 2451,75 2468,92C2485,109 2485,691 2468,708C2460,716 2410,720 2309,720L2162,720L2159,805C2155,885 2153,891 2122,922L2090,955L1818,958C1643,960 1541,965 1533,972C1524,979 1520,1012 1520,1079C1520,1178 1513,1200 1479,1200C1470,1200 1457,1193 1450,1185ZM2145,700C2163,680 2162,680 2127,680C2088,680 2082,688 2102,708C2118,724 2124,723 2145,700ZM2400,640L2400,160L1920,160L1920,640L2400,640Z" style="fill-rule:nonzero;"/>
    </g>
</svg>
